X:1
T: Jessie Walker
C:Muriel A Johnstone
R:Reel
%Q: 232
K:D
M:4/4
L:1/8
|:A2|d2 fe d2 Ac|d2 AG FD FA|d2 fe dA df|gf ed cA Bc|
d2 fe d2 Ac|d2 AG FD FA|EF GA Bc de|fa ef d2 f2|
a2 fd Aa fd|gf ed cA Bc|d2 fa b2 db|ad gf e2 fg|
a2 fd Aa fd|gf ed cA Bc|d2 cd Bd Ad|eg fe d2:|
